X:427
T: Woge
N: C1462
O: China, Hubei, Mianyang
S: I, 464]
R: Haozi, Sipingqiang, Dahang]
M: 2/4
L: 1/16
K: Bb
d2dgf4 | B2BcB4 | f4f2c2 | d3cB4
d2dfB2Bc | BcdcB4 | B3GF2G2 | B2G2B4
B2GBd3f | Gd2BB2G2 | B4c2B2 | G2G2F4
G2FGF2G2 | B2G2F4 | G3GF2G2 | B2G2B4

